pk/tickets-checked.svg

<svg viewBox="0 0 48 48" fill="none" xmlns="http://www.w3.org/2000/svg" height="1em" width="1em">
  <path d="M34 30V28.989C34 27.3382 35.3382 26 36.989 26V26C38.6381 26 39.9756 27.3356 39.978 28.9847L39.99 37.1853C39.9955 40.9473 36.9473 44 33.1853 44H25.6472C21.2342 44 17.0822 41.9088 14.4552 38.363L10.19 32.6062C9.46968 31.6339 9.40592 30.3235 10.0285 29.2858V29.2858C11.0299 27.6168 13.3332 27.3332 14.7096 28.7096L16 30V16C16 14.3431 17.3431 13 19 13V13C20.6569 13 22 14.3431 22 16V27.875V21.0263C22 19.3549 23.3549 18 25.0263 18V18C26.6977 18 28.0526 19.3549 28.0526 21.0263V29V27.8987C28.0526 26.2564 29.384 24.925 31.0263 24.925V24.925C32.6686 24.925 34 26.2564 34 27.8987V30Z" stroke="black" stroke-width="4" stroke-linecap="round" stroke-linejoin="round"/>
  <path d="M32 4V12" stroke="black" stroke-width="4" stroke-linecap="round"/>
  <path d="M16 20H6V16C8 16 10 14.5 9.97403 12C9.94805 9.5 8 8 6 8V4H42V8C40 8 38.0519 9.5 38.026 12C38 14.5 40 16 42 16V20H28" stroke="black" stroke-width="4" stroke-linecap="round" stroke-linejoin="round"/>
</svg>

<svg viewBox="0 0 48 48" fill="none" xmlns="http://www.w3.org/2000/svg" height="1em" width="1em">
  <path d="M34 30v-1.011A2.989 2.989 0 0 1 36.989 26v0a2.989 2.989 0 0 1 2.989 2.985l.012 8.2A6.805 6.805 0 0 1 33.185 44h-7.538a13.929 13.929 0 0 1-11.192-5.637l-4.265-5.757a2.992 2.992 0 0 1-.162-3.32v0a2.992 2.992 0 0 1 4.682-.576L16 30V16a3 3 0 0 1 3-3v0a3 3 0 0 1 3 3v11.875-6.849A3.026 3.026 0 0 1 25.026 18v0a3.026 3.026 0 0 1 3.027 3.026V29v-1.101a2.974 2.974 0 0 1 2.973-2.974v0A2.974 2.974 0 0 1 34 27.899V30Z" stroke="#000" stroke-width="4" stroke-linecap="round" stroke-linejoin="round"/>
  <path d="M32 4v8" stroke="#000" stroke-width="4" stroke-linecap="round"/>
  <path d="M16 20H6v-4c2 0 4-1.5 3.974-4C9.948 9.5 8 8 6 8V4h36v4c-2 0-3.948 1.5-3.974 4C38 14.5 40 16 42 16v4H28" stroke="#000" stroke-width="4" stroke-linecap="round" stroke-linejoin="round"/>
</svg>
